X:5044
T:Paul O'Shanoughessy's
O:england
M:4/4
L:1/8
S:Siobháne Peoples
R:reel
K:D
g2|:fd (3 edc d=c AB|=c2 Bd cA GE|D2 (3FED AD FD|EG AB =cd eg|
fd (3 ddd AB =cA|d2 Bd AG FE|D2 (3FED (3EFG AB|
1 =cA GE ED D2:|2 =cA GE ED Dg||
fd dc de fg|aA ce de fg|e=c cB cd ef|g=c ~c2 ef ge|
f2 ec d=c AB|=c2 Bd cA GE|D2 (3FED EG AB|1 =cA GE ED D2:|
2 =cA GE D4||


